Simply-Purple-Circles/scalable/devices/input-keyboard.svg

<svg xmlns="http://www.w3.org/2000/svg" width="48" height="48" viewBox="0 0 12.7 12.7"><path d="M6.344.073a6.29 6.29 0 0 0-6.29 6.29 6.29 6.29 0 0 0 6.29 6.288 6.29 6.29 0 0 0 6.29-6.289 6.29 6.29 0 0 0-6.29-6.29zm-.018.936a5.407 5.407 0 0 1 5.407 5.407 5.407 5.407 0 0 1-5.407 5.407A5.407 5.407 0 0 1 .92 6.416 5.407 5.407 0 0 1 6.326 1.01zM3.033 3.477a.82.82 0 0 0-.82.823L2.21 8.416c0 .455.368.823.823.823h6.585a.823.823 0 0 0 .823-.823V4.3a.823.823 0 0 0-.823-.823H3.033zm.411 1.235h.823v.823h-.823v-.823zm1.235 0h.824v.823h-.824v-.823zm1.235 0h.823v.823h-.823v-.823zm1.234 0h.824v.823h-.824v-.823zm1.235 0h.824v.823h-.824v-.823zM3.444 5.946h.823v.824h-.823v-.824zm1.235 0h.824v.824h-.824v-.824zm1.235 0h.823v.824h-.823v-.824zm1.234 0h.824v.824h-.824v-.824zm1.235 0h.824v.824h-.824v-.824zM4.68 7.593h3.293v.823H4.679v-.823z" fill="#963996"/></svg>

<?xml version="1.0" encoding="UTF-8" standalone="no"?>
<svg
   xmlns:dc="http://purl.org/dc/elements/1.1/"
   xmlns:cc="http://creativecommons.org/ns#"
   xmlns:rdf="http://www.w3.org/1999/02/22-rdf-syntax-ns#"
   xmlns:svg="http://www.w3.org/2000/svg"
   xmlns="http://www.w3.org/2000/svg"
   xmlns:sodipodi="http://sodipodi.sourceforge.net/DTD/sodipodi-0.dtd"
   xmlns:inkscape="http://www.inkscape.org/namespaces/inkscape"
   width="48"
   height="48"
   viewBox="0 0 12.7 12.7"
   version="1.1"
   id="svg4"
   sodipodi:docname="input-keyboard.svg"
   inkscape:version="0.92.4 (5da689c313, 2019-01-14)">
  <metadata
     id="metadata10">
    <rdf:RDF>
      <cc:Work
         rdf:about="">
        <dc:format>image/svg+xml</dc:format>
        <dc:type
           rdf:resource="http://purl.org/dc/dcmitype/StillImage" />
        <dc:title></dc:title>
      </cc:Work>
    </rdf:RDF>
  </metadata>
  <defs
     id="defs8" />
  <sodipodi:namedview
     pagecolor="#ffffff"
     bordercolor="#666666"
     borderopacity="1"
     objecttolerance="10"
     gridtolerance="10"
     guidetolerance="10"
     inkscape:pageopacity="0"
     inkscape:pageshadow="2"
     inkscape:window-width="1087"
     inkscape:window-height="480"
     id="namedview6"
     showgrid="false"
     inkscape:zoom="4.9166667"
     inkscape:cx="2.1355932"
     inkscape:cy="24"
     inkscape:window-x="0"
     inkscape:window-y="25"
     inkscape:window-maximized="0"
     inkscape:current-layer="svg4" />
  <path
     d="m 6.344,0.073 a 6.29,6.29 0 0 0 -6.29,6.29 6.29,6.29 0 0 0 6.29,6.288 6.29,6.29 0 0 0 6.29,-6.289 6.29,6.29 0 0 0 -6.29,-6.29 z M 6.326,1.009 A 5.407,5.407 0 0 1 11.733,6.416 5.407,5.407 0 0 1 6.326,11.823 5.407,5.407 0 0 1 0.92,6.416 5.407,5.407 0 0 1 6.326,1.01 Z M 3.033,3.477 A 0.82,0.82 0 0 0 2.213,4.3 L 2.21,8.416 c 0,0.455 0.368,0.823 0.823,0.823 H 9.618 A 0.823,0.823 0 0 0 10.441,8.416 V 4.3 A 0.823,0.823 0 0 0 9.618,3.477 Z M 3.444,4.712 H 4.267 V 5.535 H 3.444 Z m 1.235,0 H 5.503 V 5.535 H 4.679 Z m 1.235,0 H 6.737 V 5.535 H 5.914 Z m 1.234,0 H 7.972 V 5.535 H 7.148 Z m 1.235,0 H 9.207 V 5.535 H 8.383 Z M 3.444,5.946 H 4.267 V 6.77 H 3.444 Z m 1.235,0 H 5.503 V 6.77 H 4.679 Z m 1.235,0 H 6.737 V 6.77 H 5.914 Z m 1.234,0 H 7.972 V 6.77 H 7.148 Z m 1.235,0 H 9.207 V 6.77 H 8.383 Z M 4.68,7.593 H 7.973 V 8.416 H 4.679 V 7.593 Z"
     id="path2"
     inkscape:connector-curvature="0"
     style="fill:#963996" />
</svg>
